X:1
T:Star of Morn and Even, 66.55.55
T:James Tilleard, 1867
T:Star of Morn and Even, 66.55.55
T:Public Domain
C:James Tilleard, 1867
Z:Public Domain
%%score ( 1 2 ) ( 3 4 )
L:1/8
M:2/4
K:Ab
V:1 treble 
V:2 treble 
V:3 bass 
V:4 bass 
V:1
 [Ec]2 [EA]2 | [EG]2 [DF]2 | E3 F | [CE]2 z2 | E2 [EA]2 | [GB]2 [Ac]2 | B3 c | [GB]2 z2 | %8
 [EB]3 [Ee] x | [EA]2 [DB]2 | [Cc]4- | [Cc]2 z2 | [Fc]3 [Ff] x | [FB]2 [Ec]2 | [Dd]4- | [Dd]2 z2 | %16
 [Ge]3 [GB] | [Gd]2 [Gc]2 | A4- | [AB]4 | [Ac]3 [EA] | [Fc]2 [GB]2 | [EA]4- | [EA]2 z2 |] %24
V:2
 x4 | x4 | D4 | x4 | E2 x2 | x4 | A4 | x4 | x5 | x4 | x4 | x4 | x5 | x4 | x4 | x4 | x4 | x4 | A4 | %19
 x4 | x4 | x4 | x4 | x4 |] %24
V:3
 [A,,A,]2 [C,A,]2 | [E,B,]2 [F,A,]2 | [G,B,]4 | [A,C]2 z2 | [A,C]2 C2 | [B,D]2 [A,C]2 | [B,=D]4 | %7
 [E,E]2 z2 | G,2 z E, x | [F,C]2 [G,B,]2 | A,4- | A,2 z2 | =A,2 z F, x | [G,D]2 [=A,C]2 | B,4- | %15
 B,2 z2 | [E,B,]3 [E,B,] | [=E,B,]2 [E,C]2 | [F,-C]4 | [F,=D]4 | [E,E]3 [E,C] | [E,D]2 [E,D]2 | %22
 [A,,C]4- | [A,,C]2 z2 |] %24
V:4
 x4 | x4 | x4 | x4 | x2 C2 | x4 | x4 | x4 | E,3 D2 | x4 | A,4- | A,2 x2 | F,3 E2 | x4 | B,4- | %15
 B,2 x2 | x4 | x4 | x4 | x4 | x4 | x4 | x4 | x4 |] %24

